ui/StatusQ/src/assets/img/icons/node-offline.svg

<svg fill="none" height="24" viewBox="0 0 24 24" width="24" xmlns="http://www.w3.org/2000/svg"><g fill="#000"><path clip-rule="evenodd" d="m3.53033 2.46967c-.29289-.29289-.76777-.29289-1.06066 0s-.29289.76777 0 1.06066l18.00003 17.99997c.2929.2929.7677.2929 1.0606 0s.2929-.7677 0-1.0606l-1.1179-1.118c-.2172-.2172-.1871-.5761.0342-.789.8035-.7732 1.3034-1.8596 1.3034-3.0627 0-2.0331-1.4276-3.7327-3.335-4.1512.2166-.5756.335-1.1989.335-1.8488 0-2.8995-2.3505-5.25-5.25-5.25-1.9439 0-3.64102 1.05647-4.54855 2.62656-.17981.3111-.61431.39992-.86839.14584zm6.35403 6.03197c-.04439.1611.00921.33127.12734.44943l8.6293 8.62923c.1625.1625.4182.1969.5962.0516.6181-.5043 1.0128-1.272 1.0128-2.1319 0-1.5188-1.2312-2.75-2.75-2.75-.6781 0-1.1238-.7447-.7688-1.3455.3295-.5576.5188-1.2078.5188-1.9045 0-2.07107-1.6789-3.75-3.75-3.75-1.7254 0-3.1786 1.16521-3.61564 2.75164z" fill-rule="evenodd"/><path d="m14.7574 18.25c.199 0 .3897.079.5304.2197.4724.4724.1378 1.2803-.5304 1.2803h-7.2574c-2.8995 0-5.25-2.3505-5.25-5.25 0-2.2609 1.4292-4.1881 3.43345-4.92723.32946-.12151.69265-.01477.94095.23353l.20168.2017c.27082.2708.07334.77-.29668.8688-1.60058.4277-2.7794 1.8878-2.7794 3.6232 0 2.0711 1.67893 3.75 3.75 3.75z"/></g></svg>

<svg width="24" height="24" viewBox="0 0 24 24" fill="none" xmlns="http://www.w3.org/2000/svg">
<path fill-rule="evenodd" clip-rule="evenodd" d="M3.53033 2.46967C3.23744 2.17678 2.76256 2.17678 2.46967 2.46967C2.17678 2.76256 2.17678 3.23744 2.46967 3.53033L20.4697 21.5303C20.7626 21.8232 21.2374 21.8232 21.5303 21.5303C21.8232 21.2374 21.8232 20.7626 21.5303 20.4697L20.4124 19.3517C20.1952 19.1345 20.2253 18.7756 20.4466 18.5627C21.2501 17.7895 21.75 16.7031 21.75 15.5C21.75 13.4669 20.3224 11.7673 18.415 11.3488C18.6316 10.7732 18.75 10.1499 18.75 9.5C18.75 6.6005 16.3995 4.25 13.5 4.25C11.5561 4.25 9.85898 5.30647 8.95145 6.87656C8.77164 7.18766 8.33714 7.27648 8.08306 7.0224L3.53033 2.46967ZM9.88436 8.50164C9.83997 8.66274 9.89357 8.83291 10.0117 8.95107L18.641 17.5803C18.8035 17.7428 19.0592 17.7772 19.2372 17.6319C19.8553 17.1276 20.25 16.3599 20.25 15.5C20.25 13.9812 19.0188 12.75 17.5 12.75C16.8219 12.75 16.3762 12.0053 16.7312 11.4045C17.0607 10.8469 17.25 10.1967 17.25 9.5C17.25 7.42893 15.5711 5.75 13.5 5.75C11.7746 5.75 10.3214 6.91521 9.88436 8.50164Z" fill="black"/>
<path d="M14.7574 18.25C14.9564 18.25 15.1471 18.329 15.2878 18.4697C15.7602 18.9421 15.4256 19.75 14.7574 19.75H7.5C4.6005 19.75 2.25 17.3995 2.25 14.5C2.25 12.2391 3.6792 10.3119 5.68345 9.57277C6.01291 9.45126 6.3761 9.558 6.6244 9.8063L6.82608 10.008C7.0969 10.2788 6.89942 10.778 6.5294 10.8768C4.92882 11.3045 3.75 12.7646 3.75 14.5C3.75 16.5711 5.42893 18.25 7.5 18.25H14.7574Z" fill="black"/>
</svg>
